X: 17599
T: Hogan's Corner
R: polka
M: 2/4
K: Amixolydian
|:AB cd|ef e>f|ed cB|AB cA|
AB cd|ef e>f|ed cB|1 A2 AB:|2 A2 Af/g/||
|:af ge|fd e>f|ed cd|ed e/f/g|
af ge|fd e>f|ed cB|1 A2 Af/g/:|2 A2 AB||

